assets/raw/rboardPatcher.svg

<svg xmlns="http://www.w3.org/2000/svg" width="432" height="432" fill="none">
    <path fill="%accent_background%" d="M0 0h432v432H0z" />
    <path fill="%desaturated_accent%" fill-rule="evenodd" d="M137.118 188.101a6.954 6.954 0 0 0 0 9.824l19.344 19.368v27.385c0 3.837 3.106 6.947 6.938 6.947h27.351l19.343 19.367a6.932 6.932 0 0 0 9.812 0l19.344-19.367h27.354c3.831 0 6.938-3.11 6.938-6.947V217.29l19.34-19.365a6.952 6.952 0 0 0 0-9.824l-19.34-19.364v-27.391c0-3.836-3.107-6.947-6.938-6.947h-27.357l-19.341-19.364a6.932 6.932 0 0 0-9.812 0l-19.34 19.364H163.4c-3.832 0-6.938 3.111-6.938 6.947v27.388l-19.344 19.367Zm39.198 43.645v-22.687l-16.025-16.046 16.025-16.045v-22.689h22.662L215 138.236l16.023 16.043h22.664v22.692l16.023 16.042-16.023 16.043v22.69h-22.661L215 247.791l-16.025-16.045h-22.659Z" clip-rule="evenodd" />
    <path fill="%desaturated_accent%" d="M133 270.94a4.967 4.967 0 0 1 4.964-4.97h9.831a4.967 4.967 0 0 1 4.964 4.97v10.071a4.967 4.967 0 0 1-4.964 4.97h-9.831a4.967 4.967 0 0 1-4.964-4.97V270.94ZM153.747 306.959a4.967 4.967 0 0 1 4.964-4.97H271.29a4.966 4.966 0 0 1 4.963 4.97v11.071a4.966 4.966 0 0 1-4.963 4.97H158.711a4.967 4.967 0 0 1-4.964-4.97v-11.071ZM174.518 265.97a4.967 4.967 0 0 0-4.964 4.97v10.071a4.967 4.967 0 0 0 4.964 4.97h9.832a4.966 4.966 0 0 0 4.963-4.97V270.94a4.966 4.966 0 0 0-4.963-4.97h-9.832ZM240.687 270.94a4.966 4.966 0 0 1 4.963-4.97h9.832a4.967 4.967 0 0 1 4.964 4.97v10.071a4.967 4.967 0 0 1-4.964 4.97h-9.832a4.966 4.966 0 0 1-4.963-4.97V270.94ZM282.205 265.97a4.967 4.967 0 0 0-4.964 4.97v10.071a4.967 4.967 0 0 0 4.964 4.97h9.831a4.967 4.967 0 0 0 4.964-4.97V270.94a4.967 4.967 0 0 0-4.964-4.97h-9.831Z" />
</svg>

<svg width="432" height="432" viewBox="0 0 432 432" fill="none" xmlns="http://www.w3.org/2000/svg">
    <rect width="432" height="432" fill="%accent_background%" />
    <path fill-rule="evenodd" clip-rule="evenodd" d="M137.118 188.101C134.409 190.814 134.409 195.213 137.118 197.925L156.462 217.293V244.678C156.462 248.515 159.568 251.625 163.4 251.625H190.751L210.094 270.992C212.804 273.705 217.197 273.705 219.906 270.992L239.25 251.625H266.604C270.435 251.625 273.542 248.515 273.542 244.678V217.29L292.882 197.925C295.592 195.213 295.592 190.814 292.882 188.101L273.542 168.737V141.346C273.542 137.51 270.435 134.399 266.604 134.399H239.247L219.906 115.035C217.197 112.322 212.804 112.322 210.094 115.035L190.754 134.399H163.4C159.568 134.399 156.462 137.51 156.462 141.346V168.734L137.118 188.101ZM176.316 231.746V209.059L160.291 193.013L176.316 176.968V154.279H198.978L215 138.236L231.023 154.279H253.687V176.971L269.71 193.013L253.687 209.056V231.746H231.026L215 247.791L198.975 231.746H176.316Z" fill="%desaturated_accent%" />
    <path d="M133 270.94C133 268.195 135.222 265.97 137.964 265.97H147.795C150.537 265.97 152.759 268.195 152.759 270.94V281.011C152.759 283.756 150.537 285.981 147.795 285.981H137.964C135.222 285.981 133 283.756 133 281.011V270.94Z" fill="%desaturated_accent%" />
    <path d="M153.747 306.959C153.747 304.214 155.969 301.989 158.711 301.989H271.29C274.031 301.989 276.253 304.214 276.253 306.959V318.03C276.253 320.775 274.031 323 271.29 323H158.711C155.969 323 153.747 320.775 153.747 318.03V306.959Z" fill="%desaturated_accent%" />
    <path d="M174.518 265.97C171.777 265.97 169.554 268.195 169.554 270.94V281.011C169.554 283.756 171.777 285.981 174.518 285.981H184.35C187.091 285.981 189.313 283.756 189.313 281.011V270.94C189.313 268.195 187.091 265.97 184.35 265.97H174.518Z" fill="%desaturated_accent%" />
    <path d="M240.687 270.94C240.687 268.195 242.909 265.97 245.65 265.97H255.482C258.223 265.97 260.446 268.195 260.446 270.94V281.011C260.446 283.756 258.223 285.981 255.482 285.981H245.65C242.909 285.981 240.687 283.756 240.687 281.011V270.94Z" fill="%desaturated_accent%" />
    <path d="M282.205 265.97C279.463 265.97 277.241 268.195 277.241 270.94V281.011C277.241 283.756 279.463 285.981 282.205 285.981H292.036C294.778 285.981 297 283.756 297 281.011V270.94C297 268.195 294.778 265.97 292.036 265.97H282.205Z" fill="%desaturated_accent%" />
</svg>
